tools/download-figma-icons/icons/outlined-medium/bus.svg

<svg width="24" height="24" viewBox="0 0 24 24" fill="none" xmlns="http://www.w3.org/2000/svg">
<path fill-rule="evenodd" clip-rule="evenodd" d="M23.97 12.57C23.985 12.63 23.9925 12.69 23.9925 12.7575L24 15.78C24 16.1775 23.85 16.5525 23.565 16.8375C23.2875 17.1225 22.9125 17.2725 22.515 17.2725H20.85C20.535 18.135 19.71 18.75 18.7425 18.75C17.775 18.75 16.9425 18.135 16.6275 17.2725H6.6C6.285 18.135 5.46 18.75 4.4925 18.75C3.525 18.75 2.6925 18.135 2.3775 17.2725H0.75C0.3375 17.2725 0 16.9425 0 16.5225V6.75C0 6.3375 0.3375 6 0.75 6H21.1875C21.8775 6 22.4775 6.4725 22.6425 7.1475L23.97 12.57ZM19.4895 11.97L22.2825 11.9925L21.1875 7.5H19.4895V11.97ZM4.4925 17.25C4.905 17.25 5.2425 16.9125 5.2425 16.5C5.2425 16.1475 4.995 15.8475 4.665 15.7725H4.32C3.9825 15.8475 3.7425 16.1475 3.7425 16.5C3.7425 16.9125 4.0725 17.25 4.4925 17.25ZM18.7425 17.25C19.155 17.25 19.4925 16.9125 19.4925 16.5C19.4925 16.1475 19.245 15.8475 18.915 15.7725H18.57C18.2325 15.8475 17.9925 16.1475 17.9925 16.5C17.9925 16.9125 18.3225 17.25 18.7425 17.25ZM18.7425 14.25C19.725 14.25 20.565 14.8875 20.865 15.7725H22.4993L22.4918 13.494L19.4767 13.47C18.657 13.464 17.9895 12.7913 17.9895 11.97V7.5H1.5V15.7725H2.3625C2.67 14.8875 3.5025 14.25 4.4925 14.25C5.475 14.25 6.315 14.8875 6.615 15.7725H16.6125C16.92 14.8875 17.7525 14.25 18.7425 14.25ZM2.99253 8.25008H16.4925C16.905 8.25008 17.2425 8.58758 17.2425 9.00008V12.7501C17.2425 13.1626 16.905 13.5001 16.4925 13.5001H2.99253C2.57253 13.5001 2.24253 13.1626 2.24253 12.7501V9.00008C2.24253 8.58758 2.57253 8.25008 2.99253 8.25008ZM3.74253 9.75008V12.0001H6.73953V9.75008H3.74253ZM8.23953 9.75008V12.0001H11.2395V9.75008H8.23953ZM12.7395 12.0001H15.7425V9.75008H12.7395V12.0001Z" fill="black"/>
</svg>

<svg xmlns="http://www.w3.org/2000/svg" width="24" height="24" fill="none" viewBox="0 0 24 24"><path fill="currentColor" fill-rule="evenodd" d="M23.97 12.57c.015.06.023.12.023.188L24 15.78c0 .397-.15.772-.435 1.057a1.45 1.45 0 0 1-1.05.436H20.85a2.246 2.246 0 0 1-4.222 0H6.6a2.246 2.246 0 0 1-4.222 0H.75a.747.747 0 0 1-.75-.75V6.75C0 6.338.338 6 .75 6h20.438c.69 0 1.29.473 1.454 1.148zm-4.48-.6 2.793.022L21.187 7.5H19.49zM4.493 17.25a.748.748 0 0 0 .173-1.477H4.32a.74.74 0 0 0-.578.727c0 .413.33.75.75.75m14.25 0a.748.748 0 0 0 .172-1.477h-.345a.74.74 0 0 0-.578.727c0 .413.33.75.75.75m0-3c.982 0 1.822.637 2.122 1.523h1.634l-.007-2.279-3.015-.024a1.503 1.503 0 0 1-1.488-1.5V7.5H1.5v8.273h.862a2.245 2.245 0 0 1 4.253 0h9.998a2.255 2.255 0 0 1 2.13-1.523m-15.75-6h13.5c.412 0 .75.338.75.75v3.75c0 .413-.338.75-.75.75h-13.5a.747.747 0 0 1-.75-.75V9c0-.412.33-.75.75-.75m.75 1.5V12H6.74V9.75zm4.497 0V12h3V9.75zm4.5 2.25h3.002V9.75H12.74z" clip-rule="evenodd"/></svg>
